polaris-icons/icons/CursorBannerIcon.svg

<svg xmlns="http://www.w3.org/2000/svg" viewBox="0 0 20 20"><path d="M15 7.25V11C15 11.4142 15.3358 11.75 15.75 11.75C16.1642 11.75 16.5 11.4142 16.5 11V7.25C16.5 5.17893 14.8211 3.5 12.75 3.5H7.25C5.17893 3.5 3.5 5.17893 3.5 7.25V12.75C3.5 14.8211 5.17893 16.5 7.25 16.5H11C11.4142 16.5 11.75 16.1642 11.75 15.75C11.75 15.3358 11.4142 15 11 15H7.25C6.00736 15 5 13.9926 5 12.75L5 7.25C5 6.00736 6.00736 5 7.25 5L12.75 5C13.9926 5 15 6.00736 15 7.25Z"/>
<path d="M14 10.625C14 10.2798 13.7202 10 13.375 10L7 10C6.44772 10 6 10.4477 6 11L6 13C6 13.5523 6.44772 14 7 14H10.1654C10.6487 14 11.0628 13.6544 11.1493 13.1789L11.3507 12.0711C11.4372 11.5956 11.8513 11.25 12.3346 11.25H13.375C13.7202 11.25 14 10.9702 14 10.625Z"/>
<path d="M12.6902 12.0844C12.52 12.0421 12.34 12.092 12.216 12.2161C12.092 12.3401 12.042 12.52 12.0843 12.6902L13.2056 17.2007C13.2491 17.3756 13.3834 17.5136 13.5571 17.5618C13.7308 17.61 13.917 17.561 14.0444 17.4336L15.2086 16.2694L16.0496 17.1104C16.2449 17.3056 16.5615 17.3056 16.7567 17.1104L17.1103 16.7568C17.3055 16.5615 17.3055 16.245 17.1103 16.0497L16.2693 15.2087L17.4335 14.0445C17.561 13.917 17.6099 13.7308 17.5617 13.5572C17.5135 13.3835 17.3755 13.2492 17.2006 13.2057L12.6902 12.0844Z"/></svg>

<svg xmlns="http://www.w3.org/2000/svg" viewBox="0 0 20 20"><path d="M15 7.25v3.75c0 .414.336.75.75.75s.75-.336.75-.75v-3.75c0-2.071-1.679-3.75-3.75-3.75h-5.5c-2.071 0-3.75 1.679-3.75 3.75v5.5c0 2.071 1.679 3.75 3.75 3.75h3.75c.414 0 .75-.336.75-.75s-.336-.75-.75-.75h-3.75c-1.243 0-2.25-1.007-2.25-2.25v-5.5c0-1.243 1.007-2.25 2.25-2.25h5.5c1.243 0 2.25 1.007 2.25 2.25Z"/><path d="M14 10.625c0-.345-.28-.625-.625-.625h-6.375c-.552 0-1 .448-1 1v2c0 .552.448 1 1 1h3.165c.484 0 .898-.346.984-.821l.202-1.108c.086-.475.5-.821.984-.821h1.04c.345 0 .625-.28.625-.625Z"/><path d="M12.69 12.084c-.17-.042-.35.008-.474.132s-.174.304-.132.474l1.122 4.51c.043.176.177.314.351.362.174.048.36-.001.487-.128l1.165-1.165.84.841c.196.196.512.196.708 0l.353-.353c.195-.196.195-.512 0-.707l-.84-.841 1.163-1.165c.128-.127.177-.313.129-.487-.049-.174-.187-.308-.361-.351l-4.51-1.122Z"/></svg>
